src/assets/images/mim-figurer.svg

<svg width="540" height="288" viewBox="0 0 540 288" fill="none" xmlns="http://www.w3.org/2000/svg">
<rect x="187.398" width="96" height="272" rx="24" transform="rotate(15 187.398 0)" fill="#FF907A"/>
<circle cx="167.58" cy="197.604" r="12" transform="rotate(15 167.58 197.604)" fill="white"/>
<path fill-rule="evenodd" clip-rule="evenodd" d="M160.787 207.5C165.715 207.115 170.091 203.686 171.444 198.639C172.796 193.592 170.721 188.435 166.646 185.637C161.717 186.022 157.341 189.451 155.989 194.498C154.637 199.545 156.712 204.702 160.787 207.5Z" fill="black"/>
<circle cx="198.489" cy="205.886" r="12" transform="rotate(15 198.489 205.886)" fill="white"/>
<path fill-rule="evenodd" clip-rule="evenodd" d="M191.696 215.782C196.625 215.397 201.001 211.968 202.353 206.921C203.705 201.874 201.63 196.717 197.555 193.919C192.626 194.304 188.25 197.733 186.898 202.78C185.546 207.827 187.621 212.985 191.696 215.782Z" fill="black"/>
<path d="M161.368 220.786C161.368 220.786 167.606 226.598 175.788 228.791C183.97 230.983 192.278 229.068 192.278 229.068" stroke="black" stroke-width="3" stroke-linecap="round"/>
<path d="M292.186 147.088C299.002 134.551 316.998 134.551 323.814 147.088L325.978 151.068C329.208 157.009 335.494 160.638 342.253 160.465L346.782 160.349C361.047 159.983 370.045 175.568 362.596 187.739L360.231 191.603C356.701 197.371 356.701 204.629 360.231 210.397L362.596 214.261C370.045 226.432 361.047 242.017 346.782 241.651L342.253 241.535C335.494 241.362 329.208 244.991 325.978 250.932L323.814 254.912C316.998 267.449 299.002 267.449 292.186 254.912L290.022 250.932C286.792 244.991 280.506 241.362 273.747 241.535L269.218 241.651C254.953 242.017 245.955 226.432 253.404 214.261L255.769 210.397C259.299 204.629 259.299 197.371 255.769 191.603L253.404 187.739C245.955 175.568 254.953 159.983 269.218 160.349L273.747 160.465C280.506 160.638 286.792 157.009 290.022 151.068L292.186 147.088Z" fill="#FFDE69"/>
<circle cx="293" cy="194" r="12" fill="white"/>
<path fill-rule="evenodd" clip-rule="evenodd" d="M297 205.317C292.339 203.67 289 199.225 289 194C289 188.775 292.339 184.33 297 182.683C301.661 184.33 305 188.775 305 194C305 199.225 301.661 203.67 297 205.317Z" fill="black"/>
<circle cx="325" cy="194" r="12" fill="white"/>
<path fill-rule="evenodd" clip-rule="evenodd" d="M329 205.317C324.339 203.67 321 199.225 321 194C321 188.775 324.339 184.33 329 182.683C333.661 184.33 337 188.775 337 194C337 199.225 333.661 203.67 329 205.317Z" fill="black"/>
<path d="M312 220.5C312 224.09 306.418 223 302 223C297.582 223 294 226.09 294 222.5C294 218.91 299.582 216 304 216C308.418 216 312 216.91 312 220.5Z" fill="black"/>
<path d="M30.2348 190.641C35.3055 181.314 48.6945 181.314 53.7652 190.641V190.641C56.1679 195.06 60.8448 197.76 65.8736 197.631V197.631C76.4863 197.359 83.1807 208.954 77.6387 218.009V218.009C75.0127 222.3 75.0127 227.7 77.6387 231.991V231.991C83.1807 241.046 76.4863 252.641 65.8736 252.369V252.369C60.8448 252.24 56.1679 254.94 53.7652 259.359V259.359C48.6945 268.686 35.3055 268.686 30.2348 259.359V259.359C27.8321 254.94 23.1552 252.24 18.1264 252.369V252.369C7.51375 252.641 0.819281 241.046 6.36128 231.991V231.991C8.98735 227.7 8.98735 222.3 6.36128 218.009V218.009C0.819281 208.954 7.51375 197.359 18.1264 197.631V197.631C23.1552 197.76 27.8321 195.06 30.2348 190.641V190.641Z" fill="#ABD4C0"/>
<circle cx="30" cy="222" r="9" fill="white"/>
<path fill-rule="evenodd" clip-rule="evenodd" d="M32.9999 230.488C36.4955 229.253 39 225.919 39 222C39 218.081 36.4956 214.748 33.0001 213.512C29.5045 214.748 27 218.081 27 222C27 225.919 29.5044 229.252 32.9999 230.488Z" fill="black"/>
<circle cx="55" cy="222" r="9" fill="white"/>
<path fill-rule="evenodd" clip-rule="evenodd" d="M57.9999 230.488C61.4955 229.252 64 225.919 64 222C64 218.081 61.4956 214.748 58.0001 213.512C54.5045 214.748 52 218.081 52 222C52 225.919 54.5044 229.252 57.9999 230.488Z" fill="black"/>
<path d="M35 238C35 238 36.8824 242 43 242C49.1176 242 51 238 51 238" stroke="black" stroke-width="3" stroke-linecap="round"/>
<path d="M116.424 33.7088L144.702 75.8086L189.118 45.2191L170.62 93.4332L222.566 105.887L171.221 123.909L191.581 170.029L146.054 144.288L119.496 189.344L114.069 139.224L60.5919 149.288L99.3514 112.53L59.2248 80.0238L112.985 84.3073L116.424 33.7088Z" fill="#FFC532"/>
<path d="M133.438 118.522C133.438 118.522 135.32 120.088 139.752 118.901C144.184 117.713 145.03 115.416 145.03 115.416" stroke="black" stroke-width="3" stroke-linecap="round"/>
<path d="M128.746 102.876C131.966 102.014 135.186 101.151 138.405 100.288" stroke="black" stroke-width="3" stroke-linecap="round"/>
<circle cx="123.209" cy="105.395" r="8" transform="rotate(-15 123.209 105.395)" fill="black"/>
<circle cx="144.459" cy="99.7013" r="8" transform="rotate(-15 144.459 99.7013)" fill="black"/>
<path d="M463 210H391V282H535V138H463V210Z" fill="#6969AA"/>
<circle cx="487" cy="168" r="9" fill="white"/>
<path fill-rule="evenodd" clip-rule="evenodd" d="M490 176.488C493.496 175.252 496 171.919 496 168C496 164.081 493.496 160.748 490 159.512C486.504 160.748 484 164.081 484 168C484 171.919 486.504 175.252 490 176.488Z" fill="black"/>
<circle cx="512" cy="168" r="9" fill="white"/>
<path fill-rule="evenodd" clip-rule="evenodd" d="M515 176.488C511.504 175.252 509 171.919 509 168C509 164.081 511.504 160.748 515 159.512C518.496 160.748 521 164.081 521 168C521 171.919 518.496 175.252 515 176.488Z" fill="black"/>
<path d="M492.062 187.109C492.062 187.109 493.968 189.422 500.159 189.422C506.35 189.422 508.255 187.109 508.255 187.109" stroke="black" stroke-width="3" stroke-linecap="round"/>
</svg>

<svg xmlns="http://www.w3.org/2000/svg" width="540" height="288" fill="none" viewBox="0 0 540 288">
  <rect width="96" height="272" x="187.4" fill="#FF907A" rx="24" transform="rotate(15 187.4 0)"/>
  <circle cx="167.58" cy="197.6" r="12" fill="#fff" transform="rotate(15 167.58 197.6)"/>
  <path fill="#000" fill-rule="evenodd" d="M160.79 207.5a12 12 0 0 0 5.86-21.86 12 12 0 0 0-5.86 21.86Z" clip-rule="evenodd"/>
  <circle cx="198.49" cy="205.89" r="12" fill="#fff" transform="rotate(15 198.49 205.89)"/>
  <path fill="#000" fill-rule="evenodd" d="M191.7 215.78a12 12 0 0 0 5.86-21.86 12 12 0 0 0-5.86 21.86Z" clip-rule="evenodd"/>
  <path stroke="#000" stroke-linecap="round" stroke-width="3" d="M161.37 220.79s6.24 5.8 14.42 8 16.49.28 16.49.28"/>
  <path fill="#FFDE69" d="M292.19 147.09c6.81-12.54 24.8-12.54 31.62 0l2.17 3.98a18 18 0 0 0 16.27 9.4l4.53-.12c14.27-.37 23.27 15.22 15.82 27.39l-2.37 3.86a18 18 0 0 0 0 18.8l2.37 3.86c7.44 12.17-1.55 27.76-15.82 27.4l-4.53-.13a18 18 0 0 0-16.27 9.4l-2.17 3.98c-6.81 12.54-24.8 12.54-31.62 0l-2.17-3.98a18 18 0 0 0-16.27-9.4l-4.53.12c-14.27.37-23.27-15.22-15.82-27.39l2.37-3.86a18 18 0 0 0 0-18.8l-2.37-3.86c-7.44-12.17 1.55-27.76 15.82-27.4l4.53.13a18 18 0 0 0 16.27-9.4l2.17-3.98Z"/>
  <circle cx="293" cy="194" r="12" fill="#fff"/>
  <path fill="#000" fill-rule="evenodd" d="M297 205.32a12 12 0 0 1 0-22.64 12 12 0 0 1 0 22.64Z" clip-rule="evenodd"/>
  <circle cx="325" cy="194" r="12" fill="#fff"/>
  <path fill="#000" fill-rule="evenodd" d="M329 205.32a12 12 0 0 1 0-22.64 12 12 0 0 1 0 22.64Z" clip-rule="evenodd"/>
  <path fill="#000" d="M312 220.5c0 3.59-5.58 2.5-10 2.5s-8 3.09-8-.5 5.58-6.5 10-6.5 8 .91 8 4.5Z"/>
  <path fill="#ABD4C0" d="M30.23 190.64a13.4 13.4 0 0 1 23.54 0 13.4 13.4 0 0 0 12.1 7A13.4 13.4 0 0 1 77.64 218a13.4 13.4 0 0 0 0 13.98 13.4 13.4 0 0 1-11.77 20.38 13.4 13.4 0 0 0-12.1 6.99 13.4 13.4 0 0 1-23.54 0 13.4 13.4 0 0 0-12.1-7A13.4 13.4 0 0 1 6.36 232a13.4 13.4 0 0 0 0-13.98 13.4 13.4 0 0 1 11.77-20.38 13.4 13.4 0 0 0 12.1-6.99Z"/>
  <circle cx="30" cy="222" r="9" fill="#fff"/>
  <path fill="#000" fill-rule="evenodd" d="M33 230.49a9 9 0 0 0 0-16.98 9 9 0 0 0 0 16.98Z" clip-rule="evenodd"/>
  <circle cx="55" cy="222" r="9" fill="#fff"/>
  <path fill="#000" fill-rule="evenodd" d="M58 230.49a9 9 0 0 0 0-16.98 9 9 0 0 0 0 16.98Z" clip-rule="evenodd"/>
  <path stroke="#000" stroke-linecap="round" stroke-width="3" d="M35 238s1.88 4 8 4 8-4 8-4"/>
  <path fill="#FFC532" d="m116.42 33.7 28.28 42.1 44.42-30.58-18.5 48.21 51.95 12.46-51.35 18.02 20.36 46.12-45.53-25.74-26.55 45.05-5.43-50.12-53.48 10.07 38.76-36.76-40.13-32.5L113 84.3l3.43-50.6Z"/>
  <path stroke="#000" stroke-linecap="round" stroke-width="3" d="M133.44 118.52s1.88 1.57 6.31.38 5.28-3.48 5.28-3.48m-16.28-12.54 9.66-2.6"/>
  <circle cx="123.21" cy="105.39" r="8" fill="#000" transform="rotate(-15 123.2 105.4)"/>
  <circle cx="144.46" cy="99.7" r="8" fill="#000" transform="rotate(-15 144.46 99.7)"/>
  <path fill="#6969AA" d="M463 210h-72v72h144V138h-72v72Z"/>
  <circle cx="487" cy="168" r="9" fill="#fff"/>
  <path fill="#000" fill-rule="evenodd" d="M490 176.49a9 9 0 0 0 0-16.98 9 9 0 0 0 0 16.98Z" clip-rule="evenodd"/>
  <circle cx="512" cy="168" r="9" fill="#fff"/>
  <path fill="#000" fill-rule="evenodd" d="M515 176.49a9 9 0 0 1 0-16.98 9 9 0 0 1 0 16.98Z" clip-rule="evenodd"/>
  <path stroke="#000" stroke-linecap="round" stroke-width="3" d="M492.06 187.1s1.9 2.32 8.1 2.32c6.19 0 8.1-2.31 8.1-2.31"/>
</svg>
